X: 1
T:Drops of Brandy. WM080
M:9/8
L:1/8
Q:*
C:*
S:Wm.Mittell,1799
R:Slip Jig
O:England
A:Kent
P:*
N:Compare with WM075
Z:C.G.P
W:Haands round with 2nd Lady.The same with the 2nd Gent.Lead down the
W:middle.then illegible
K:G
d2c BGB BGB|d2c BGB cBA|d2c BGB BGB|cBcA2B cBA:|!
|:G2g gdB gdB|G2g gdB cBA|G2g gdB gdB|cBcA2B cBA:|]
